Obsidian/status/16s/dialog-warning-symbolic.svg

<svg height="16" width="16" xmlns="http://www.w3.org/2000/svg"><path d="m7.906.094c-.525-.029-1.038.283-1.437.969l-6.25 11.592c-.534.965.048 2.345 1.094 2.345h13.156c.982 0 1.903-1.16 1.219-2.344l-6.313-11.531c-.399-.646-.943-1.003-1.469-1.031zm.064 3.936c.544-.017 1.048.487 1.031 1.032v3.938c.007.528-.471 1-1 1-.528 0-1.007-.472-1-1v-3.938a1.033 1.033 0 0 1 .813-1c.05-.014.103-.024.156-.03zm.03 6.97a1 1 0 1 1 0 2 1 1 0 0 1 0-2z" fill="#bebebe"/></svg>

<?xml version="1.0" encoding="UTF-8" standalone="no"?>
<svg
   xmlns:dc="http://purl.org/dc/elements/1.1/"
   xmlns:cc="http://creativecommons.org/ns#"
   xmlns:rdf="http://www.w3.org/1999/02/22-rdf-syntax-ns#"
   xmlns:svg="http://www.w3.org/2000/svg"
   xmlns="http://www.w3.org/2000/svg"
   id="svg4"
   version="1.1"
   height="16"
   width="16">
  <metadata
     id="metadata10">
    <rdf:RDF>
      <cc:Work
         rdf:about="">
        <dc:format>image/svg+xml</dc:format>
        <dc:type
           rdf:resource="http://purl.org/dc/dcmitype/StillImage" />
        <dc:title></dc:title>
      </cc:Work>
    </rdf:RDF>
  </metadata>
  <defs
     id="defs8" />
  <path
     id="path2"
     fill="#474747"
     overflow="visible"
     color="#bebebe"
     style="marker:none;fill:#bebebe;fill-opacity:1"
     d="M7.906.094c-.525-.029-1.038.283-1.437.969L.219 12.655C-.315 13.62.267 15 1.313 15h13.156c.982 0 1.903-1.16 1.219-2.344L9.375 1.125C8.976.479 8.432.122 7.906.094zM7.97 4.03c.544-.017 1.048.487 1.031 1.032V9c.007.528-.471 1-1 1-.528 0-1.007-.472-1-1V5.062a1.033 1.033 0 0 1 .813-1c.05-.014.103-.024.156-.03zM8 11a1 1 0 1 1 0 2 1 1 0 0 1 0-2z" />
</svg>
